vendor/shopware/storefront/Resources/app/storefront/dist/assets/icon/default/filter.svg

<svg xmlns="http://www.w3.org/2000/svg" viewBox="0 0 24 24">
  <path fill="#758CA3" fill-rule="evenodd" d="M2,3 C2,1.8954305 2.8954305,1 4,1 L20,1 C21.1045695,1 22,1.8954305 22,3 L22,8.58578644 C22,9.11621942 21.7892863,9.62492724 21.4142136,10 L16,15.4142136 L16,21 C16,22.1045695 15.1045695,23 14,23 L10,23 C8.8954305,23 8,22.1045695 8,21 L8,15.4142136 L2.58578644,10 C2.21071368,9.62492724 2,9.11621942 2,8.58578644 L2,3 Z M4,3 L4,8.58578644 L9.41421356,14 C9.78928632,14.3750728 10,14.8837806 10,15.4142136 L10,21 L14,21 L14,15.4142136 C14,14.8837806 14.2107137,14.3750728 14.5857864,14 L20,8.58578644 L20,3 L4,3 Z"/>
</svg>

<svg xmlns="http://www.w3.org/2000/svg" viewBox="0 0 24 24"><path fill="#758CA3" fill-rule="evenodd" d="M2 3c0-1.1046.8954-2 2-2h16c1.1046 0 2 .8954 2 2v5.5858A2 2 0 0 1 21.4142 10L16 15.4142V21c0 1.1046-.8954 2-2 2h-4c-1.1046 0-2-.8954-2-2v-5.5858L2.5858 10A2 2 0 0 1 2 8.5858V3zm2 0v5.5858L9.4142 14A2 2 0 0 1 10 15.4142V21h4v-5.5858A2 2 0 0 1 14.5858 14L20 8.5858V3H4z"/></svg>
